X:1
T:Title
%%score { ( 1 3 ) | ( 2 4 ) }
L:1/8
M:6/4
K:Db
V:1 treble nm="Grand Piano"
V:3 treble 
V:2 bass 
V:4 bass 
V:1
 z6 z4[Q:1/4=100] [F,D]2 | [A,DF]4 [A,EG]2 [A,FA]4 [F,D]2 | [DF]4 [CE]2 [CE]4 [DF]2 | .G6 z6 | %4
[M:5/4] [DF]2- [DF]2- [DF]6 |[M:1/4] [FA]2 |[M:6/4] d3 e [Fd]2 [FA]4 [FA]2 | B2 d2 B2 [FA]4 F2 | %8
 E2 F2 E2 c4 B2 | A12 | [DFA]2 [CGB]2 [Gc]2 [Fd]4 [FA]2 | [Ac]4 B2 B4 B2 | [FA]4 [FA]2 A2 G2 F2 | %13
[M:5/4] F6 E4 |[M:1/4] [A,CE]2 |[M:6/4] [A,DF]4 [A,EG]2 [DFA]4 [A,FA]2 | [Ad]4 [Ac]2 B4 BB | %17
 z6 .A6 |[M:5/4] [DFA]2- [DFA]2- [DFA]6 |] %19
V:2
 z6 z4 D,2 | D,4 D,2 D,4 D,2 | [A,,A,]4 [A,,A,]2 [A,,A,]4 [C,A,]2 | %3
 [B,,G,]2 [A,,F,]2 [G,,G,]2 [A,,F,]4 [A,,A,]2 |[M:5/4] [D,A,]2- [D,A,]2- [D,A,]6 |[M:1/4] [D,D]2 | %6
[M:6/4] [D,A,]4 [D,A,]2 [D,D]4 [D,D]2 | .C6 z6 | [E,A,C]4 [E,A,C]2 [E,A,E]4 [E,=G,D]2 | %9
 z2 B,2 C2 .E6 | D,2 D,2 [D,B,]2 [D,A,]4 [D,D]2 | [G,D]4 [G,DG]2 [G,DG]4 [G,DG]2 | %12
 [D,D]4 [D,D]2 [F,D]2 [E,C]2 [D,A,D]2 |[M:5/4] D6 C4 |[M:1/4] A,,2 |[M:6/4] D,4 D,2 D,4 D,2 | %16
 [F,A,]4 [F,D]2[K:treble] [G,DG]4 GG | A,4 A,2[K:bass] z2 D2 A,,2 |[M:5/4] D,2- D,2- D,6 |] %19
V:3
 x12 | x12 | x12 | D2- [DA]2 [DB]2 [DA]4 [CG]2 |[M:5/4] x10 |[M:1/4] x2 |[M:6/4] .F6 z6 | x12 | %8
 x12 | [A,C]2 D2 E2 .G6 | x12 | x12 | x12 |[M:5/4] x10 |[M:1/4] x2 |[M:6/4] x12 | x12 | %17
 [DFA]4 [DFA]2 [CE]2 F2 [EGA]2 |[M:5/4] x10 |] %19
V:4
 x12 | x12 | x12 | x12 |[M:5/4] x10 |[M:1/4] x2 |[M:6/4] x12 | %7
 [G,G]2- [G,B,G]2 [G,DG]2 [D,D]4 [D,A,D]2 | x12 | A,,12 | x12 | x12 | z6 .A,6 | %13
[M:5/4] A,2- A,2- A,6 |[M:1/4] x2 |[M:6/4] x12 | z6[K:treble] z4 [G,D]2 | z6[K:bass] .A,,6 | %18
[M:5/4] x10 |] %19

